X: 265
T: Cherokee Shuffle
B: canberra pickers and fiddlers
B: tathra session
B: tunes
M:4/4
L:1/4
Q: 1/4=240
K:A
V:1 
F/2G/2|"A"AA/2B/2 AA/2B/2|"A"c/2B/2A "D"FE/2F/2|"A"AA/2B/2c/2d/2e|"F#m"f/2e/2f/2g/2 ff/2g/2|
"D"aa/2b/2 aa/2f/2|"A"e/2f/2e/2d/2c/2B/2A|"F#m"F/2G/2A/2c/2 "E7"B/2A/2G|"A"A3:|
|:e|"D"f/2e/2f/2g/2 a/2e/2f/2e/2|"A"c/2d/2e/2f/2 ee|"D"f/2e/2f/2g/2 "A"a/2e/2f|"E"e3"(A7)"e|
"D"f/2e/2f/2g/2 a/2e/2f/2e/2|"A"c/2d/2e/2f/2ef/2g/2|"D"a/2e/2g/2f/2 "E7"e/2d/2c/2B/2|"A"AA/2B/2 A:||
% abcbook-tune_id 63ae8f1ce842a9991dff42d1
% abcbook-tune_composer_id 
% abcbook-link-0 https://www.youtube.com/watch?v=Pdq6Nw1Qc8U
% abcbook-boost 0
% abcbook-difficulty 0
% abcbook-tags canberra pickers and fiddlers,old time tunes,ralph cullen,steve ryan,tathra session,© free
% abcbook-tablature 
% abcbook-transpose -7
% abcbook-tuning ADAE
% abcbook-lastupdated 1739275763628
% abcbook-src-url https://tunebook.net/scrape/tunes.abc
% abcbook-soundfonts 
% abcbook-repeats 1
%%MIDI transpose -7


